icons/Color/24/gimp-text-layer.svg

<svg height="24" viewBox="0 0 24 24" width="24" xmlns="http://www.w3.org/2000/svg" xmlns:xlink="http://www.w3.org/1999/xlink"><linearGradient id="a" gradientTransform="matrix(.52629714 0 0 .63986955 880.48963 662.83072)" gradientUnits="userSpaceOnUse" x1="83.031731" x2="66.311295" y1="40.924026" y2="22.765684"><stop offset="0" stop-color="#d0d0d0"/><stop offset="1" stop-color="#ececec"/></linearGradient><linearGradient id="b" gradientTransform="matrix(1.4444444 0 0 1.5000002 -1.444444 -.000002)" gradientUnits="userSpaceOnUse" x1="6" x2="12" y1="3" y2="5"><stop offset="0"/><stop offset="1" stop-opacity="0"/></linearGradient><path d="m7.060199 5.799029h18.253176v14.767002h-18.253176z" style="fill-rule:evenodd;stroke:#888a85;stroke-width:1.027042;stroke-linecap:round;stroke-linejoin:round;stroke-miterlimit:10;fill:url(#a)" transform="matrix(.99913866 0 -.31732690801 .94972339385 .010327 -.019772)"/><path d="m9.439501 8.179223h14.081502v8.931645h-14.081502z" fill="none" stroke="#fff" stroke-miterlimit="10" stroke-width="1.599638" transform="matrix(.99913866 0 -.31449646808 .95066903617 .010327 -.019772)"/><path d="m.311628.311756h23.376616v23.376616h-23.376616z" fill="none" opacity="0" stroke="#000" stroke-linecap="round" stroke-width=".623256"/><path d="m13-.000002v4.0597349h-.379558c-.224935-.9365662-.47446-1.6076568-.748572-2.0132744-.27414-.4129658-.650181-.7411368-1.128133-.9845135-.267106-.132729-.502954-.1991007-1.170684-.1991148h-1.0648693v11.5707978c-.0000106.766962.038644 1.246313.1159744 1.438052.084327.191742.2424865.361358.4744479.508851.2389698.140115.5622973.210177.969981.210176h.474446v.409293h-8.2847072v-.409293h.4744481c.4146975.000001.748567-.07745 1.0016114-.232301.1827445-.103245.3268366-.280234.4322724-.530973.077315-.176989.1159744-.641592.1159744-1.393805v-11.5707978h-1.1123885c-.962955.0000141-1.174058.2138781-1.6098425.641593-.61151189.5973581-.99809928 1.4491271-1.15976071 2.5553097h-.40064039v-4.0597349h13" fill="url(#b)" fill-rule="evenodd"/></svg>

<?xml version="1.0" encoding="UTF-8" standalone="no"?>
<svg
   xmlns:dc="http://purl.org/dc/elements/1.1/"
   xmlns:cc="http://creativecommons.org/ns#"
   xmlns:rdf="http://www.w3.org/1999/02/22-rdf-syntax-ns#"
   xmlns:svg="http://www.w3.org/2000/svg"
   xmlns="http://www.w3.org/2000/svg"
   xmlns:xlink="http://www.w3.org/1999/xlink"
   xmlns:sodipodi="http://sodipodi.sourceforge.net/DTD/sodipodi-0.dtd"
   xmlns:inkscape="http://www.inkscape.org/namespaces/inkscape"
   version="1.1"
   width="24"
   height="24"
   id="svg2"
   viewBox="0 0 24 24"
   inkscape:version="0.91+devel r"
   sodipodi:docname="gimp-text-layer-24.svg">
  <sodipodi:namedview
     pagecolor="#ffffff"
     bordercolor="#666666"
     borderopacity="1"
     objecttolerance="10"
     gridtolerance="10"
     guidetolerance="10"
     inkscape:pageopacity="0"
     inkscape:pageshadow="2"
     inkscape:window-width="1920"
     inkscape:window-height="1016"
     id="namedview1697"
     showgrid="true"
     inkscape:zoom="20.85965"
     inkscape:cx="14.617114"
     inkscape:cy="13.59409"
     inkscape:window-x="0"
     inkscape:window-y="27"
     inkscape:window-maximized="1"
     inkscape:current-layer="svg2">
    <inkscape:grid
       type="xygrid"
       id="grid4244" />
  </sodipodi:namedview>
  <metadata
     id="metadata90">
    <rdf:RDF>
      <cc:Work>
        <dc:format>image/svg+xml</dc:format>
        <dc:type
           rdf:resource="http://purl.org/dc/dcmitype/StillImage" />
        <dc:title></dc:title>
        <dc:contributor>
          <cc:Agent>
            <dc:title>many unknown and unnamed, Andrew Chadwick, Alexandre Prokoudine, Aryeom Han, Benoit Touchette, Jakub Steiner, Jehan, Johannes Matschke, Kevin Payne, Klaus Staedtler, Marek Dvoroznak, Michael Natterer</dc:title>
          </cc:Agent>
        </dc:contributor>
        <dc:description>Enhanced, extended tango-art-libre for GIMP</dc:description>
      </cc:Work>
    </rdf:RDF>
  </metadata>
  <defs
     id="defs7386">
    <linearGradient
       id="linearGradient5148">
      <stop
         stop-color="#d0d0d0"
         id="stop5150" />
      <stop
         stop-color="#ececec"
         id="stop5152"
         offset="1" />
    </linearGradient>
    <linearGradient
       y2="22.765684"
       x2="66.311295"
       y1="40.924026"
       x1="83.031731"
       gradientTransform="matrix(0.52629714,0,0,0.63986955,880.48963,662.83072)"
       gradientUnits="userSpaceOnUse"
       id="linearGradient7321"
       xlink:href="#linearGradient5148" />
    <linearGradient
       inkscape:collect="always"
       xlink:href="#linearGradient4293"
       id="linearGradient4295"
       x1="6"
       y1="3"
       x2="12"
       y2="5"
       gradientUnits="userSpaceOnUse"
       gradientTransform="matrix(1.4444444,0,0,1.5000002,-1.4444444,-2e-6)" />
    <linearGradient
       inkscape:collect="always"
       id="linearGradient4293">
      <stop
         style="stop-color:#000000;stop-opacity:1;"
         offset="0"
         id="stop4289" />
      <stop
         style="stop-color:#000000;stop-opacity:0;"
         offset="1"
         id="stop4291" />
    </linearGradient>
  </defs>
  <g
     id="g4257">
    <g
       id="g4247">
      <g
         id="g4241"
         transform="matrix(0.99913866,0,0,1.0015806,0.01032671,-0.01977231)">
        <rect
           transform="matrix(1,0,-0.31760047,0.94822463,0,0)"
           y="5.7990289"
           x="7.0601993"
           height="14.767002"
           width="18.253176"
           id="rect4273-3"
           style="color:#000000;display:inline;overflow:visible;visibility:visible;opacity:1;fill:url(#linearGradient7321);fill-opacity:1;fill-rule:evenodd;stroke:#888a85;stroke-width:1.02704239;stroke-linecap:round;stroke-linejoin:round;stroke-miterlimit:10;stroke-dasharray:none;stroke-dashoffset:0;stroke-opacity:1;marker:none;marker-start:none;marker-mid:none;marker-end:none" />
        <rect
           ry="0"
           style="color:#000000;display:inline;overflow:visible;visibility:visible;opacity:1;fill:none;fill-opacity:1;fill-rule:evenodd;stroke:#ffffff;stroke-width:1.59963834;stroke-linecap:butt;stroke-linejoin:miter;stroke-miterlimit:10;stroke-dasharray:none;stroke-dashoffset:0;stroke-opacity:1;marker:none;marker-start:none;marker-mid:none;marker-end:none"
           id="rect5156-3"
           width="14.081502"
           height="8.9316454"
           x="9.4395008"
           y="8.1792231"
           transform="matrix(1,0,-0.31476759,0.94916878,0,0)" />
      </g>
      <rect
         style="color:#000000;clip-rule:nonzero;display:inline;overflow:visible;visibility:visible;opacity:0;isolation:auto;mix-blend-mode:normal;color-interpolation:sRGB;color-interpolation-filters:linearRGB;solid-color:#000000;solid-opacity:1;fill:none;fill-opacity:1;fill-rule:nonzero;stroke:#000000;stroke-width:0.62325603;stroke-linecap:round;stroke-linejoin:miter;stroke-miterlimit:4;stroke-dasharray:none;stroke-dashoffset:0;stroke-opacity:1;color-rendering:auto;image-rendering:auto;shape-rendering:auto;text-rendering:auto;enable-background:accumulate"
         id="rect4002"
         width="23.376616"
         height="23.376616"
         x="0.31162801"
         y="0.31175566" />
    </g>
    <path
       sodipodi:nodetypes="cccsscccssccccccsscccscccc"
       id="text1950-9"
       d="M 13,-2e-6 V 4.0597329 H 12.620442 C 12.395507,3.1231667 12.145982,2.4520761 11.87187,2.0464585 11.59773,1.6334927 11.221689,1.3053217 10.743737,1.061945 10.476631,0.929216 10.240783,0.8628443 9.573053,0.8628302 H 8.5081837 V 12.433628 c -1.06e-5,0.766962 0.038644,1.246313 0.1159744,1.438052 0.084327,0.191742 0.2424865,0.361358 0.4744479,0.508851 0.2389698,0.140115 0.5622973,0.210177 0.969981,0.210176 h 0.474446 V 15 H 2.2583258 v -0.409293 h 0.4744481 c 0.4146975,10e-7 0.748567,-0.07745 1.0016114,-0.232301 0.1827445,-0.103245 0.3268366,-0.280234 0.4322724,-0.530973 0.077315,-0.176989 0.1159744,-0.641592 0.1159744,-1.393805 V 0.8628302 H 3.1702436 C 2.2072886,0.8628443 1.9961856,1.0767083 1.5604011,1.5044232 0.94888921,2.1017813 0.56230182,2.9535503 0.40064039,4.0597329 H 0 V -2e-6 h 13"
       style="color:#000000;font-style:normal;font-variant:normal;font-weight:bold;font-stretch:normal;font-size:36.17139816px;line-height:100%;font-family:'Times New Roman';text-indent:0;text-align:start;text-decoration:none;text-decoration-line:none;letter-spacing:normal;word-spacing:normal;text-transform:none;writing-mode:lr-tb;direction:ltr;text-anchor:start;display:inline;overflow:visible;visibility:visible;opacity:1;fill:url(#linearGradient4295);fill-opacity:1;fill-rule:evenodd;stroke:none;stroke-width:1.45782888;stroke-linecap:butt;stroke-linejoin:miter;stroke-miterlimit:4;stroke-dashoffset:0;stroke-opacity:1;marker:none;marker-start:none;marker-mid:none;marker-end:none"
       inkscape:connector-curvature="0" />
  </g>
</svg>
